assets/icons/traton/eye_inactive.svg

<svg xmlns="http://www.w3.org/2000/svg" width="32" height="32" viewBox="0 0 32 32" fill="none">
<path d="M27.707 26L26.293 27.4141L4.29297 5.41406L5.70703 4L27.707 26Z" fill="#001D21" />
<path d="M27.707 26L26.293 27.4141L4.29297 5.41406L5.70703 4L27.707 26Z" fill="#001D21" />
<path d="M7.12793 11.0771C5.70798 12.4287 4.69907 14.0567 4.10645 15.707C5.56804 19.7771 9.56632 23.707 16 23.707C17.2083 23.707 18.3304 23.5676 19.3662 23.3154L20.9814 24.9307C19.4888 25.4235 17.8279 25.707 16 25.707C8.26801 25.707 3.5 20.707 2 15.707C2.64391 13.5607 3.89154 11.4159 5.71582 9.66504L7.12793 11.0771Z" fill="#001D21" />
<path d="M7.12793 11.0771C5.70798 12.4287 4.69907 14.0567 4.10645 15.707C5.56804 19.7771 9.56632 23.707 16 23.707C17.2083 23.707 18.3304 23.5676 19.3662 23.3154L20.9814 24.9307C19.4888 25.4235 17.8279 25.707 16 25.707C8.26801 25.707 3.5 20.707 2 15.707C2.64391 13.5607 3.89154 11.4159 5.71582 9.66504L7.12793 11.0771Z" fill="#001D21" />
<path d="M16 5.70703C23.732 5.70703 28.5 10.707 30 15.707C29.3561 17.8534 28.1075 19.9972 26.2832 21.748L24.8701 20.335C26.2897 18.9834 27.3 17.3572 27.8926 15.707C26.4309 11.637 22.4335 7.70703 16 7.70703C14.7915 7.70703 13.6688 7.84544 12.6328 8.09766L11.0176 6.48242C12.5103 5.98946 14.1718 5.70703 16 5.70703Z" fill="#001D21" />
<path d="M16 5.70703C23.732 5.70703 28.5 10.707 30 15.707C29.3561 17.8534 28.1075 19.9972 26.2832 21.748L24.8701 20.335C26.2897 18.9834 27.3 17.3572 27.8926 15.707C26.4309 11.637 22.4335 7.70703 16 7.70703C14.7915 7.70703 13.6688 7.84544 12.6328 8.09766L11.0176 6.48242C12.5103 5.98946 14.1718 5.70703 16 5.70703Z" fill="#001D21" />
<path d="M16.707 20.6562C16.476 20.689 16.2401 20.707 16 20.707C13.2386 20.707 11 18.4685 11 15.707C11 15.4667 11.017 15.2303 11.0498 14.999L16.707 20.6562Z" fill="#001D21" />
<path d="M16.707 20.6562C16.476 20.689 16.2401 20.707 16 20.707C13.2386 20.707 11 18.4685 11 15.707C11 15.4667 11.017 15.2303 11.0498 14.999L16.707 20.6562Z" fill="#001D21" />
<path d="M16 10.707C18.7614 10.707 21 12.9456 21 15.707C21 15.9471 20.9819 16.183 20.9492 16.4141L15.292 10.7568C15.5233 10.7241 15.7597 10.707 16 10.707Z" fill="#001D21" />
<path d="M16 10.707C18.7614 10.707 21 12.9456 21 15.707C21 15.9471 20.9819 16.183 20.9492 16.4141L15.292 10.7568C15.5233 10.7241 15.7597 10.707 16 10.707Z" fill="#001D21" />
</svg>

<svg xmlns="http://www.w3.org/2000/svg" fill="none" viewBox="0 0 32 32"><path fill="#001d21" d="m27.7 26-1.4 1.4-22-22L5.7 4z"/><path fill="#001d21" d="m27.7 26-1.4 1.4-22-22L5.7 4zM7.1 11a12 12 0 0 0-3 4.7c1.5 4 5.5 8 11.9 8q1.8 0 3.4-.4L21 25q-2.3.8-5 .8c-7.7 0-12.5-5-14-10a14 14 0 0 1 3.7-6z"/><path fill="#001d21" d="M7.1 11a12 12 0 0 0-3 4.7c1.5 4 5.5 8 11.9 8q1.8 0 3.4-.4L21 25q-2.3.8-5 .8c-7.7 0-12.5-5-14-10a14 14 0 0 1 3.7-6zM16 5.7c7.7 0 12.5 5 14 10a14 14 0 0 1-3.7 6l-1.4-1.4a12 12 0 0 0 3-4.6c-1.5-4-5.5-8-11.9-8q-1.8 0-3.4.4L11 6.5q2.3-.8 5-.8"/><path fill="#001d21" d="M16 5.7c7.7 0 12.5 5 14 10a14 14 0 0 1-3.7 6l-1.4-1.4a12 12 0 0 0 3-4.6c-1.5-4-5.5-8-11.9-8q-1.8 0-3.4.4L11 6.5q2.3-.8 5-.8M16.7 20.7H16a5 5 0 0 1-5-5.7z"/><path fill="#001d21" d="M16.7 20.7H16a5 5 0 0 1-5-5.7zM16 10.7a5 5 0 0 1 5 5.7l-5.7-5.6z"/><path fill="#001d21" d="M16 10.7a5 5 0 0 1 5 5.7l-5.7-5.6z"/></svg>
